dist/assets/img/filter/filter.svg

<svg width="14" height="14" viewBox="0 0 14 14" fill="none" xmlns="http://www.w3.org/2000/svg">
<path d="M13.5003 0H0.500489C0.224342 0 0.000488281 0.223854 0.000488281 0.500001V2.99995C0.000517578 3.14162 0.060663 3.27665 0.165983 3.37145L5.00041 7.72238V13.4998C5.00029 13.7759 5.22403 13.9999 5.50018 14C5.57784 14 5.65445 13.982 5.72391 13.9473L8.72386 12.4473C8.89337 12.3626 9.00045 12.1893 9.00036 11.9998V7.72238L13.8348 3.37245C13.9404 3.27744 14.0005 3.14201 14.0003 2.99995V0.500001C14.0003 0.223854 13.7764 0 13.5003 0ZM13.0003 2.77744L8.16585 7.12737C8.06027 7.22237 8.00013 7.35781 8.00036 7.49987V11.6908L6.00038 12.6908V7.49987C6.00035 7.35819 5.94021 7.22317 5.83489 7.12839L1.00046 2.77744V0.999973H13.0003V2.77744Z" fill="#424242"/>
</svg>

<svg width="14" height="14" viewBox="0 0 14 14" fill="none" xmlns="http://www.w3.org/2000/svg"><path d="M13.5 0H.5a.5.5 0 00-.5.5V3a.5.5 0 00.166.371L5 7.722V13.5a.5.5 0 00.724.447l3-1.5A.5.5 0 009 12V7.722l4.835-4.35A.5.5 0 0014 3V.5a.5.5 0 00-.5-.5zM13 2.777l-4.834 4.35A.5.5 0 008 7.5v4.19l-2 1V7.5a.5.5 0 00-.165-.372L1 2.778V1h12v1.777z" fill="#424242"/></svg>
